raw/symbols/gno.svg

<svg width="42" height="42" viewBox="0 0 42 42" fill="none" xmlns="http://www.w3.org/2000/svg">
<circle cx="21" cy="21" r="20" fill="#222222"/>
<path d="M31.8677 14.2926L30.8795 15.2781C31.6649 16.5099 31.912 18.0551 31.3736 19.532C30.4753 22.0399 27.6919 23.3615 25.1542 22.4657C24.7944 22.3318 24.4587 22.1752 24.166 21.973L21 25.1303L18.2381 22.3533C16.9585 23.2035 15.3191 23.4499 13.7696 22.9129C11.1648 21.973 9.8182 19.129 10.7606 16.5541C10.8949 16.1511 11.0976 15.7922 11.3219 15.4575L10.1323 14.2712L9.90803 14.6514C8.66226 16.6799 8.00203 19.0119 8.00007 21.3905C7.97724 28.5326 13.8152 34.3773 20.9771 34.3773H21C28.1619 34.3773 33.9784 28.5782 34 21.4347C33.9998 19.0587 33.3474 16.7282 32.1135 14.6956L31.8677 14.2926Z" fill="#F3F3F3"/>
<path d="M12.7773 16.9087C12.4273 17.3737 12.2383 17.9395 12.2389 18.5208C12.2389 19.9763 13.4285 21.1627 14.888 21.1627C15.4949 21.1627 16.0561 20.9605 16.5046 20.603L12.7773 16.9087Z" fill="#F3F3F3"/>
<path d="M25.7797 20.3772C26.2067 20.6678 26.7008 20.8245 27.262 20.8245C28.7215 20.8245 29.9111 19.6381 29.9111 18.1827C29.9111 17.6457 29.7541 17.1302 29.4627 16.7044L25.7797 20.3772Z" fill="#F3F3F3"/>
<path d="M21.0436 23.1613L10.3115 12.4132L10.7385 11.966C13.3876 9.16756 17.0021 7.59961 20.8865 7.59961H20.9093C24.838 7.59961 28.611 9.27869 31.2373 12.1896L31.6414 12.6369L21.0436 23.1613ZM12.0637 12.4132L21.0449 21.3925L29.9134 12.5927C27.5328 10.22 24.2996 8.8529 20.9321 8.8529H20.9093C17.5633 8.8529 14.4429 10.1075 12.0637 12.4132Z" fill="#F3F3F3"/>
</svg>

<svg xmlns="http://www.w3.org/2000/svg" width="42" height="42" fill="none"><circle cx="21" cy="21" r="20" fill="#222"/><path fill="#F3F3F3" d="m31.868 14.293-.988.985c.785 1.232 1.032 2.777.494 4.254-.899 2.508-3.682 3.83-6.22 2.934a4.478 4.478 0 0 1-.988-.493L21 25.13l-2.762-2.777a5.058 5.058 0 0 1-4.468.56c-2.605-.94-3.952-3.784-3.01-6.359.135-.403.338-.762.562-1.096l-1.19-1.187-.224.38A12.897 12.897 0 0 0 8 21.391c-.023 7.142 5.815 12.986 12.977 12.986H21c7.162 0 12.978-5.799 13-12.942 0-2.376-.653-4.707-1.886-6.74l-.246-.402Z"/><path fill="#F3F3F3" d="M12.777 16.909a2.65 2.65 0 0 0 2.11 4.254c.608 0 1.17-.203 1.618-.56l-3.728-3.694ZM25.78 20.377c.427.29.92.448 1.482.448a2.65 2.65 0 0 0 2.65-2.642c0-.537-.158-1.053-.45-1.479l-3.682 3.673ZM21.044 23.161 10.312 12.413l.427-.447A13.873 13.873 0 0 1 20.886 7.6h.022a13.95 13.95 0 0 1 10.328 4.59l.404.447L21.044 23.16Zm-8.98-10.748 8.98 8.98 8.87-8.8c-2.381-2.373-5.614-3.74-8.982-3.74h-.023c-3.346 0-6.466 1.255-8.845 3.56Z"/></svg>
